X: 43351
T: Wrecking, The
R: reel
M: 4/4
K: Gminor
g|fd c/B/A BGGA|BGAG FGAg|fd c/B/A BGGA|
BGAF DGG:|f|g2ga bgdg|fdcB AFFA|Ggga bgdg|
fd c/B/A BGG2|Ggga bgdg|fdcB AFFg|bgaf gbag|
fd cA BGG||

